X: 1
T: Caucus, The
M: 4/4
L: 1/8
R: reel
K: Gmaj
B|:dBBd ~g3d | egdB ~A3B | dBBd g2bg |1 a{b}age ~G3B:|2 aage g3a|| 
|:b~g3 ageg | g~e3 dega | b~g3  a2bg | aage ~g3a| 
b~g3 agea | g~e3 dBGA | B2BG AGEG |1 GEDE G3a:|2 GEDE G3d|| 
|:edgd ed (3Bcd | egdB ~A3d | e2gd ed(3Bcd | gabg aag2 | 
edgd ed (3Bcd | egdB A2GA | B3G AGEF |1 GEDE ~G3d :|2 GEDE G4||
